X:1
T:Green Hill (Comley), CM
T:Green Hill (Comley), CM
T:James Comley (1819–1901)
T:Public Domain Courtesy of the Cyber Hymnal™
C:James Comley (1819–1901)
Z:Public Domain
Z:Courtesy of the Cyber Hymnal™
%%score ( 1 2 ) ( 3 4 )
L:1/8
Q:1/4=108
M:4/4
K:D
V:1 treble 
V:2 treble 
V:3 bass 
V:4 bass 
V:1
 D2 | [DF]2 [DA]2 [DG]2 [DF]2 | [CF]3 [CE] D2 D2 | [DB]2 [DA]2 [DA]2 [DF]2 | [CE]6 [Ec]2 | %5
 [Dd]2 [DF]2 [DE]2 [CB]2 | [DA]2 D2 [EG]2 [EG]2 | [DF]2 D2 [DF]2 [CE]2 x | D6 |] %9
V:2
 D2 | x8 | x4 D2 D2 | x8 | x8 | x8 | x2 D2 x4 | x2 D2 x5 | D6 |] %9
V:3
 [D,F,]2 | [D,A,]2 [D,=C]2 [D,B,]2 [D,A,]2 | [A,,G,]3 [A,,G,] [B,,F,]2 [F,A,]2 | %3
 G,2 [F,A,]2 [C,A,]2 [D,A,]2 | [A,,A,]6 [G,A,]2 | [F,A,]2 [D,A,]2 [G,B,]2 [E,G,]2 | %6
 [F,A,]2 [G,B,]2 [E,B,]2 [C,A,]2 | [D,A,]2 [B,,^G,]2 A,3 z =G, | [D,F,]6 |] %9
V:4
 x2 | x8 | x8 | G,2 x6 | x8 | x8 | x8 | x4 A,,2 A,,2 x | x6 |] %9

